Cpamatica/img/logo.svg

<svg width="109" height="40" viewBox="0 0 109 40" fill="none" xmlns="http://www.w3.org/2000/svg">
<g clip-path="url(#clip0)">
<circle cx="20" cy="20" r="12.5" stroke="#3DCF8E" stroke-width="15"/>
<path d="M53.2886 7.43C53.4353 7.43 53.5586 7.43667 53.6586 7.45C53.7586 7.46333 53.8486 7.49 53.9286 7.53C54.0086 7.56333 54.0853 7.61333 54.1586 7.68C54.2319 7.74667 54.3153 7.83667 54.4086 7.95L61.3286 16.7C61.3019 16.42 61.2819 16.15 61.2686 15.89C61.2553 15.6233 61.2486 15.3733 61.2486 15.14V7.43H64.2286V22H62.4686C62.2086 22 61.9886 21.96 61.8086 21.88C61.6286 21.8 61.4553 21.6533 61.2886 21.44L54.4186 12.76C54.4386 13.0133 54.4553 13.2633 54.4686 13.51C54.4819 13.75 54.4886 13.9767 54.4886 14.19V22H51.5086V7.43H53.2886ZM76.0058 7.43V10.03H70.0258V13.43H74.6058V15.93H70.0258V19.4H76.0058V22H66.6258V7.43H76.0058ZM76.8344 7.43H79.6744C79.9677 7.43 80.211 7.49667 80.4044 7.63C80.6044 7.76333 80.7344 7.94 80.7944 8.16L82.7944 15.76C82.861 16.0067 82.9277 16.27 82.9944 16.55C83.061 16.83 83.111 17.1233 83.1444 17.43C83.211 17.1167 83.2844 16.8233 83.3644 16.55C83.4444 16.27 83.521 16.0067 83.5944 15.76L85.9544 8.16C86.0144 7.97333 86.141 7.80667 86.3344 7.66C86.5344 7.50667 86.7744 7.43 87.0544 7.43H88.0544C88.3477 7.43 88.5877 7.49667 88.7744 7.63C88.9677 7.75667 89.101 7.93333 89.1744 8.16L91.5144 15.76C91.5877 15.9933 91.6644 16.2433 91.7444 16.51C91.8244 16.77 91.8944 17.05 91.9544 17.35C92.0077 17.0567 92.061 16.7767 92.1144 16.51C92.1744 16.2433 92.2344 15.9933 92.2944 15.76L94.2944 8.16C94.3477 7.96667 94.4744 7.79667 94.6744 7.65C94.8744 7.50333 95.1144 7.43 95.3944 7.43H98.0544L93.5544 22H90.4944L87.7544 12.97C87.7077 12.83 87.6577 12.6767 87.6044 12.51C87.5577 12.3433 87.511 12.1667 87.4644 11.98C87.4177 12.1667 87.3677 12.3433 87.3144 12.51C87.2677 12.6767 87.221 12.83 87.1744 12.97L84.3944 22H81.3344L76.8344 7.43ZM107.48 10.39C107.38 10.55 107.273 10.67 107.16 10.75C107.053 10.83 106.913 10.87 106.74 10.87C106.587 10.87 106.42 10.8233 106.24 10.73C106.067 10.63 105.867 10.52 105.64 10.4C105.42 10.28 105.167 10.1733 104.88 10.08C104.593 9.98 104.267 9.93 103.9 9.93C103.267 9.93 102.793 10.0667 102.48 10.34C102.173 10.6067 102.02 10.97 102.02 11.43C102.02 11.7233 102.113 11.9667 102.3 12.16C102.487 12.3533 102.73 12.52 103.03 12.66C103.337 12.8 103.683 12.93 104.07 13.05C104.463 13.1633 104.863 13.2933 105.27 13.44C105.677 13.58 106.073 13.7467 106.46 13.94C106.853 14.1333 107.2 14.38 107.5 14.68C107.807 14.98 108.053 15.3467 108.24 15.78C108.427 16.2067 108.52 16.7233 108.52 17.33C108.52 18.0033 108.403 18.6333 108.17 19.22C107.937 19.8067 107.597 20.32 107.15 20.76C106.71 21.1933 106.163 21.5367 105.51 21.79C104.863 22.0367 104.127 22.16 103.3 22.16C102.847 22.16 102.383 22.1133 101.91 22.02C101.443 21.9267 100.99 21.7967 100.55 21.63C100.11 21.4567 99.6968 21.2533 99.3102 21.02C98.9235 20.7867 98.5868 20.5267 98.3002 20.24L99.3002 18.66C99.3735 18.54 99.4768 18.4433 99.6102 18.37C99.7435 18.2967 99.8868 18.26 100.04 18.26C100.24 18.26 100.44 18.3233 100.64 18.45C100.847 18.5767 101.077 18.7167 101.33 18.87C101.59 19.0233 101.887 19.1633 102.22 19.29C102.553 19.4167 102.947 19.48 103.4 19.48C104.013 19.48 104.49 19.3467 104.83 19.08C105.17 18.8067 105.34 18.3767 105.34 17.79C105.34 17.45 105.247 17.1733 105.06 16.96C104.873 16.7467 104.627 16.57 104.32 16.43C104.02 16.29 103.677 16.1667 103.29 16.06C102.903 15.9533 102.507 15.8367 102.1 15.71C101.693 15.5767 101.297 15.4167 100.91 15.23C100.523 15.0367 100.177 14.7867 99.8702 14.48C99.5702 14.1667 99.3268 13.78 99.1402 13.32C98.9535 12.8533 98.8602 12.28 98.8602 11.6C98.8602 11.0533 98.9702 10.52 99.1902 10C99.4102 9.48 99.7335 9.01667 100.16 8.61C100.587 8.20333 101.11 7.88 101.73 7.64C102.35 7.39333 103.06 7.27 103.86 7.27C104.307 7.27 104.74 7.30667 105.16 7.38C105.587 7.44667 105.99 7.55 106.37 7.69C106.75 7.82333 107.103 7.98667 107.43 8.18C107.763 8.36667 108.06 8.58 108.32 8.82L107.48 10.39Z" fill="white"/>
<path d="M68.998 30C69.8287 30 70.4937 30.2613 70.993 30.784C71.4923 31.3067 71.742 32.0113 71.742 32.898V37.672H69.264V33.612C69.264 33.1827 69.1473 32.8443 68.914 32.597C68.6807 32.3497 68.368 32.226 67.976 32.226C67.5653 32.2353 67.227 32.3707 66.961 32.632C66.695 32.8933 66.5387 33.2387 66.492 33.668V37.672H64V30.098H66.492V31.33C66.7627 30.8913 67.1103 30.56 67.535 30.336C67.9597 30.112 68.4473 30 68.998 30ZM77.16 30.014C77.9813 30.014 78.7047 30.175 79.33 30.497C79.9553 30.819 80.4407 31.2717 80.786 31.855C81.1313 32.4383 81.304 33.1127 81.304 33.878C81.304 34.6527 81.1313 35.3317 80.786 35.915C80.4407 36.4983 79.9553 36.951 79.33 37.273C78.7047 37.595 77.9813 37.756 77.16 37.756C76.3387 37.756 75.6153 37.595 74.99 37.273C74.3647 36.951 73.8817 36.4983 73.541 35.915C73.2003 35.3317 73.03 34.6527 73.03 33.878C73.03 33.1127 73.2003 32.4383 73.541 31.855C73.8817 31.2717 74.3647 30.819 74.99 30.497C75.6153 30.175 76.3387 30.014 77.16 30.014ZM77.16 32.03C76.6747 32.03 76.2827 32.2027 75.984 32.548C75.6853 32.8933 75.536 33.346 75.536 33.906C75.536 34.4753 75.6853 34.9327 75.984 35.278C76.2827 35.6233 76.6747 35.796 77.16 35.796C77.6547 35.796 78.0513 35.6233 78.35 35.278C78.6487 34.9327 78.798 34.4753 78.798 33.906C78.798 33.346 78.6463 32.8933 78.343 32.548C78.0397 32.2027 77.6453 32.03 77.16 32.03ZM81.528 30.098H84.062L85.574 35.222L87.058 30.098H89.438L90.936 35.222L92.448 30.098H94.884L92.112 37.672H89.648L88.206 32.996L86.75 37.672H84.286L81.528 30.098Z" fill="#3DCF8E"/>
</g>
<defs>
<clipPath id="clip0">
<rect width="109" height="40" fill="white"/>
</clipPath>
</defs>
</svg>

<svg width="109" height="40" fill="none" xmlns="http://www.w3.org/2000/svg"><g clip-path="url(#clip0)"><circle cx="20" cy="20" r="12.5" stroke="#3DCF8E" stroke-width="15"/><path d="M53.289 7.43c.146 0 .27.007.37.02.1.013.19.04.27.08a.8.8 0 01.23.15c.073.067.156.157.25.27l6.92 8.75a17.61 17.61 0 01-.06-.81 15.11 15.11 0 01-.02-.75V7.43h2.98V22h-1.76c-.26 0-.48-.04-.66-.12-.18-.08-.354-.227-.52-.44l-6.87-8.68c.02.253.036.503.05.75.013.24.02.467.02.68V22h-2.98V7.43h1.78zm22.717 0v2.6h-5.98v3.4h4.58v2.5h-4.58v3.47h5.98V22h-9.38V7.43h9.38zm.828 0h2.84c.294 0 .537.067.73.2.2.133.33.31.39.53l2 7.6c.067.247.134.51.2.79.067.28.117.573.15.88.067-.313.14-.607.22-.88.08-.28.157-.543.23-.79l2.36-7.6a1.03 1.03 0 01.38-.5c.2-.153.44-.23.72-.23h1c.294 0 .534.067.72.2a.972.972 0 01.4.53l2.34 7.6c.074.233.15.483.23.75.08.26.15.54.21.84.054-.293.107-.573.16-.84.06-.267.12-.517.18-.75l2-7.6c.054-.193.18-.363.38-.51.2-.147.44-.22.72-.22h2.66L93.554 22h-3.06l-2.74-9.03-.15-.46a19.234 19.234 0 01-.14-.53 8.57 8.57 0 01-.15.53c-.046.167-.093.32-.14.46L84.394 22h-3.06l-4.5-14.57zm30.646 2.96c-.1.16-.207.28-.32.36a.684.684 0 01-.42.12c-.153 0-.32-.047-.5-.14-.173-.1-.373-.21-.6-.33a4.479 4.479 0 00-.76-.32c-.287-.1-.613-.15-.98-.15-.633 0-1.107.137-1.42.41-.307.267-.46.63-.46 1.09 0 .293.093.537.28.73.187.193.43.36.73.5.307.14.653.27 1.04.39.393.113.793.243 1.2.39.407.14.803.307 1.19.5.393.193.74.44 1.04.74.307.3.553.667.74 1.1.187.427.28.943.28 1.55 0 .673-.117 1.303-.35 1.89a4.433 4.433 0 01-1.02 1.54c-.44.433-.987.777-1.64 1.03-.647.247-1.383.37-2.21.37-.453 0-.917-.047-1.39-.14a8.569 8.569 0 01-1.36-.39 8.234 8.234 0 01-1.24-.61 5.263 5.263 0 01-1.01-.78l1-1.58a.878.878 0 01.74-.4c.2 0 .4.063.6.19l.69.42c.26.153.557.293.89.42.333.127.727.19 1.18.19.613 0 1.09-.133 1.43-.4.34-.273.51-.703.51-1.29 0-.34-.093-.617-.28-.83a2.153 2.153 0 00-.74-.53c-.3-.14-.643-.263-1.03-.37a37.86 37.86 0 01-1.19-.35 9.639 9.639 0 01-1.19-.48 3.97 3.97 0 01-1.04-.75c-.3-.313-.543-.7-.73-1.16-.186-.467-.28-1.04-.28-1.72a4.132 4.132 0 011.3-2.99c.427-.407.95-.73 1.57-.97.62-.247 1.33-.37 2.13-.37.447 0 .88.037 1.3.11.427.067.83.17 1.21.31.38.133.733.297 1.06.49.333.187.63.4.89.64l-.84 1.57z" fill="#fff"/><path d="M68.998 30c.83 0 1.496.261 1.995.784.5.523.749 1.227.749 2.114v4.774h-2.478v-4.06c0-.43-.117-.768-.35-1.015-.233-.247-.546-.371-.938-.371-.41.01-.749.145-1.015.406-.266.261-.422.607-.469 1.036v4.004H64v-7.574h2.492v1.232c.27-.439.618-.77 1.043-.994.425-.224.912-.336 1.463-.336zm8.162.014c.821 0 1.545.161 2.17.483a3.53 3.53 0 011.456 1.358c.345.583.518 1.258.518 2.023 0 .775-.173 1.454-.518 2.037a3.53 3.53 0 01-1.456 1.358c-.625.322-1.349.483-2.17.483s-1.545-.161-2.17-.483a3.484 3.484 0 01-1.449-1.358c-.34-.583-.511-1.262-.511-2.037 0-.765.17-1.44.511-2.023a3.484 3.484 0 011.449-1.358c.625-.322 1.349-.483 2.17-.483zm0 2.016c-.485 0-.877.173-1.176.518-.299.345-.448.798-.448 1.358 0 .57.15 1.027.448 1.372.299.345.69.518 1.176.518.495 0 .891-.173 1.19-.518.299-.345.448-.803.448-1.372 0-.56-.152-1.013-.455-1.358-.303-.345-.698-.518-1.183-.518zm4.368-1.932h2.534l1.512 5.124 1.484-5.124h2.38l1.498 5.124 1.512-5.124h2.436l-2.772 7.574h-2.464l-1.442-4.676-1.456 4.676h-2.464l-2.758-7.574z" fill="#3DCF8E"/></g><defs><clipPath id="clip0"><path fill="#fff" d="M0 0h109v40H0z"/></clipPath></defs></svg>
